X: 1
T: Menuette efter J.O. Löfvén
M: 3/4
L: 1/16
K: Gmaj
Q: 120
[V:1]|: gfga g2G2 B2d2 | (cB)(ce) d2dc A2c2| B3d g3d b2g2| g2fg (ag)fe d4|
[V:2]|: G,2B,D [DG]4 G2,B2| (AG)Ac [BD]3A F2A2| G3F E2c2 B2A2| (FE)DE [DC]4 [DB,]4|
[V:1] gfga g2G2 B2d2 | (cB)(ce) d2dc A2c2| B3d g2e2 d2B2| (dc)Bc A4 G4:|
[V:2]G,2B,D [DG]4 G2,B2| (AG)Ac [BD]3A F2Ac| G3F E3F G3B| B2AB c2A2 (FE)DC :|
[V:1]|: d4 (Bd)(Bd) g2b2| c4 (Ac)(Ac) f2a2| g3f e2d2 c2B2| (dc)Bc A4 A2GF|
[V:2]|: G,2B,D G3B B2G2| (AG)FE D2FA [cD]4| G3B (cd)cB (AB)AG | A2G2 F2E2 D2C2|
[V:1] G2B2 d2g2 b2g2| d2dB (dc)Bc A2Ac| B3d g2e2 d2B2 | (dc)Bc A4 G4:|
[V:2]B,2G,2 B,2D2 G2B2| B2BG (B,C)DE F4| G2F2 D2c2 B2G2| (FE)DE [CD]4 [DB,]4:|

